team955.org/images/brands/Korvis.svg

<?xml version="1.0" encoding="utf-8"?>
<!-- Generator: Adobe Illustrator 15.1.0, SVG Export Plug-In . SVG Version: 6.00 Build 0)  -->
<!DOCTYPE svg PUBLIC "-//W3C//DTD SVG 1.1//EN" "http://www.w3.org/Graphics/SVG/1.1/DTD/svg11.dtd">
<svg version="1.1" id="Layer_1" xmlns="http://www.w3.org/2000/svg" xmlns:xlink="http://www.w3.org/1999/xlink" x="0px" y="0px"
	 width="290px" height="86px" viewBox="0 0 290 86" enable-background="new 0 0 290 86" xml:space="preserve">
<path fill="#043D7D" d="M263.38,1.36c6.19-2.5,14.33,0.92,15.81,7.69c2.121,7.08-3.799,15.12-11.219,15
	c-7.041,0.25-13-6.95-11.631-13.82C256.9,6.28,259.779,2.95,263.38,1.36z"/>
<path fill="#043D7D" d="M219.92,25.01c-0.52-6.58,5.6-12.41,12.109-11.85c4.82-0.18,8.541,3.56,10.461,7.64
	c-1.91,2.72-4.04,5.42-4.95,8.67c-0.7,2.05-0.92,4.29-1.97,6.21C228.55,39.27,219.23,32.84,219.92,25.01z"/>
<path fill="#043D7D" d="M244.189,23.24c2.83-2.54,6.461-4.67,10.351-4.68c2.271,2.07,3.86,4.91,6.66,6.36
	c3.06,1.63,6.67,1.21,9.92,2.17c0.78,1.37,1.271,2.89,1.851,4.35c-3.23,2.19-6.791,4.52-8.211,8.35c-1.57,3.62-0.84,7.62-0.27,11.37
	c-6.18,2.89-14.43,2.82-19.641-2C237.359,42.85,236.9,29.86,244.189,23.24z"/>
<path fill="#043D7D" d="M0,30.06c2.14,0.24,4.29,0.47,6.43,0.7c0.42,8.21-0.16,16.43,0.43,24.62c6.63-7.29,12.17-15.49,18.68-22.87
	c2.04-2.75,5.77-1.95,8.73-2.22c-5.58,9.14-13.14,16.86-19.19,25.681C21.55,65.84,28.71,75.25,35.13,85.16
	c-2.5-0.141-5.1,0.09-7.51-0.71c-6.87-7.761-11.35-17.421-18.57-24.91c-4.52,7.649-1.73,16.84-2.43,25.22
	C4.41,84.9,2.21,85.02,0,85.141V30.06z"/>
<path fill="#043D7D" d="M142.21,30.28c1.61,0.04,3.22,0.07,4.83,0.09c0.13,1.64,0.29,3.28,0.39,4.92c-1.83,0.03-3.66,0.05-5.49,0.05
	C142.02,33.65,142.13,31.97,142.21,30.28z"/>
<path fill="#043D7D" d="M273.37,34.34c6.19-2.84,14.37,0.99,15.72,7.75c0.45,3.471,0.61,7.48-1.71,10.37
	c-3.28,4.22-9.51,5.62-14.33,3.39c-3.909-2.06-7.159-6.189-6.829-10.8C266.24,40.49,269.24,36.18,273.37,34.34z"/>
<path fill="#043D7D" d="M169.721,39.85c4.279-1.76,8.789,0.25,12.889,1.57c0.021,1.49,0.061,2.98,0.08,4.48
	c-4.199-1.17-8.85-3.65-13.119-1.391c-2.291,1.15-2.17,4.74-0.11,6.04c4,2.31,9.49,1.521,12.71,5.24c2.41,2.36,1.7,6.19,0.471,8.96
	c-1.58,3.65-6.031,4.62-9.621,4.721c-3.529,0.26-6.899-0.951-10.049-2.381c0.029-1.71,0.069-3.42,0.1-5.119
	c3.83,1.529,7.8,5.209,12.14,3.359c2.149-0.71,4.72-2.471,3.7-5.09c-2.391-3.76-7.439-3.641-11.16-5.25
	c-2.95-0.91-4.9-3.91-4.6-6.98C162.95,44.061,166.52,41.36,169.721,39.85z"/>
<path fill="#043D7D" d="M76.07,40c1.24-0.01,2.47,0.03,3.7,0.13c0.21,1.31,0.42,2.62,0.64,3.92c3.18-2.13,6.6-4.07,10.53-4.27
	c-0.02,1.62-0.07,3.23-0.09,4.85c-3.72,0.46-7.33,1.591-10.52,3.591c-0.09,6.85,0.35,13.719-0.24,20.559
	c-1.33,0.08-2.67,0.121-4.01,0.111C75.92,59.26,75.93,49.63,76.07,40z"/>
<path fill="#043D7D" d="M102.01,40.03c1.58,0.05,3.17,0.12,4.75,0.18c2.74,7.22,4.77,14.729,8.24,21.649
	c3.17-7.09,4.92-14.709,8.04-21.83c1.59,0.03,3.19,0.07,4.79,0.1c-3.79,9.54-6.86,19.37-11.06,28.75c-1.4-0.09-2.79-0.159-4.18-0.22
	C108.78,59.221,105.38,49.62,102.01,40.03z"/>
<path fill="#043D7D" d="M142.41,40.18c1.46-0.06,2.91-0.11,4.369-0.17c0.08,9.61,0.181,19.23-0.039,28.84
	c-1.44-0.039-2.87-0.07-4.31-0.119C142.43,59.221,142.44,49.7,142.41,40.18z"/>
<path fill="#043D7D" d="M57.36,44.641c-2.67-4.241-8.1-6.4-12.95-5.15c-12.85,3.19-13.76,23.74-2.38,29.39
	c2.66,1.181,5.72,1.12,8.52,0.54c5.17-1.29,8.65-6.37,9.21-11.49C60.17,53.43,60.23,48.42,57.36,44.641z M54.06,61.04
	c-1.48,4.29-7.68,5.239-11.12,2.94c-5.17-5.021-4.77-13.961-0.19-19.24c1.14-1.11,2.93-1.061,4.42-1.2c2.9-0.08,6,1.58,6.85,4.489
	C55.34,52.2,55.6,56.88,54.06,61.04z"/>
<path fill="#043D7D" d="M232.54,59.4c-1.49-5.15,1.88-10.28,6.149-12.91c2.65,2.65,5.09,5.71,8.561,7.34
	c2.82,1.26,5.859,1.9,8.83,2.67c-0.08,6.07-4.83,12.08-11.12,12.359C239.189,69.42,233.75,64.95,232.54,59.4z"/>
</svg>

<?xml version="1.0" encoding="UTF-8" ?>
<!DOCTYPE svg PUBLIC "-//W3C//DTD SVG 1.1//EN" "http://www.w3.org/Graphics/SVG/1.1/DTD/svg11.dtd">
<svg width="290pt" height="86pt" viewBox="0 0 290 86" version="1.1" xmlns="http://www.w3.org/2000/svg">
<path fill="#ffffff" d=" M 0.00 0.00 L 290.00 0.00 L 290.00 86.00 L 0.00 86.00 L 0.00 85.14 C 2.21 85.02 4.41 84.90 6.62 84.76 C 7.32 76.38 4.53 67.19 9.05 59.54 C 16.27 67.03 20.75 76.69 27.62 84.45 C 30.03 85.25 32.63 85.02 35.13 85.16 C 28.71 75.25 21.55 65.84 15.08 55.97 C 21.13 47.15 28.69 39.43 34.27 30.29 C 31.31 30.56 27.58 29.76 25.54 32.51 C 19.03 39.89 13.49 48.09 6.86 55.38 C 6.27 47.19 6.85 38.97 6.43 30.76 C 4.29 30.53 2.14 30.30 0.00 30.06 L 0.00 0.00 Z" />
<path fill="#043d7d" d=" M 263.38 1.36 C 269.57 -1.14 277.71 2.28 279.19 9.05 C 281.31 16.13 275.39 24.17 267.97 24.05 C 260.93 24.30 254.97 17.10 256.34 10.23 C 256.90 6.28 259.78 2.95 263.38 1.36 Z" />
<path fill="#043d7d" d=" M 219.92 25.01 C 219.40 18.43 225.52 12.60 232.03 13.16 C 236.85 12.98 240.57 16.72 242.49 20.80 C 240.58 23.52 238.45 26.22 237.54 29.47 C 236.84 31.52 236.62 33.76 235.57 35.68 C 228.55 39.27 219.23 32.84 219.92 25.01 Z" />
<path fill="#043d7d" d=" M 244.19 23.24 C 247.02 20.70 250.65 18.57 254.54 18.56 C 256.81 20.63 258.40 23.47 261.20 24.92 C 264.26 26.55 267.87 26.13 271.12 27.09 C 271.90 28.46 272.39 29.98 272.97 31.44 C 269.74 33.63 266.18 35.96 264.76 39.79 C 263.19 43.41 263.92 47.41 264.49 51.16 C 258.31 54.05 250.06 53.98 244.85 49.16 C 237.36 42.85 236.90 29.86 244.19 23.24 Z" />
<path fill="#043d7d" d=" M 0.00 30.06 C 2.14 30.30 4.29 30.53 6.43 30.76 C 6.85 38.97 6.27 47.19 6.86 55.38 C 13.49 48.09 19.03 39.89 25.54 32.51 C 27.58 29.76 31.31 30.56 34.27 30.29 C 28.69 39.43 21.13 47.15 15.08 55.97 C 21.55 65.84 28.71 75.25 35.13 85.16 C 32.63 85.02 30.03 85.25 27.62 84.45 C 20.75 76.69 16.27 67.03 9.05 59.54 C 4.53 67.19 7.32 76.38 6.62 84.76 C 4.41 84.90 2.21 85.02 0.00 85.14 L 0.00 30.06 Z" />
<path fill="#043d7d" d=" M 142.21 30.28 C 143.82 30.32 145.43 30.35 147.04 30.37 C 147.17 32.01 147.33 33.65 147.43 35.29 C 145.60 35.32 143.77 35.34 141.94 35.34 C 142.02 33.65 142.13 31.97 142.21 30.28 Z" />
<path fill="#043d7d" d=" M 273.37 34.34 C 279.56 31.50 287.74 35.33 289.09 42.09 C 289.54 45.56 289.70 49.57 287.38 52.46 C 284.10 56.68 277.87 58.08 273.05 55.85 C 269.14 53.79 265.89 49.66 266.22 45.05 C 266.24 40.49 269.24 36.18 273.37 34.34 Z" />
<path fill="#043d7d" d=" M 44.41 39.49 C 49.26 38.24 54.69 40.40 57.36 44.64 C 60.23 48.42 60.17 53.43 59.76 57.93 C 59.20 63.05 55.72 68.13 50.55 69.42 C 47.75 70.00 44.69 70.06 42.03 68.88 C 30.65 63.23 31.56 42.68 44.41 39.49 Z" />
<path fill="#043d7d" d=" M 169.72 39.85 C 174.00 38.09 178.51 40.10 182.61 41.42 C 182.63 42.91 182.67 44.40 182.69 45.90 C 178.49 44.73 173.84 42.25 169.57 44.51 C 167.28 45.66 167.40 49.25 169.46 50.55 C 173.46 52.86 178.95 52.07 182.17 55.79 C 184.58 58.15 183.87 61.98 182.64 64.75 C 181.06 68.40 176.61 69.37 173.02 69.47 C 169.49 69.73 166.12 68.52 162.97 67.09 C 163.00 65.38 163.04 63.67 163.07 61.97 C 166.90 63.50 170.87 67.18 175.21 65.33 C 177.36 64.62 179.93 62.86 178.91 60.24 C 176.52 56.48 171.47 56.60 167.75 54.99 C 164.80 54.08 162.85 51.08 163.15 48.01 C 162.95 44.06 166.52 41.36 169.72 39.85 Z" />
<path fill="#043d7d" d=" M 76.07 40.00 C 77.31 39.99 78.54 40.03 79.77 40.13 C 79.98 41.44 80.19 42.75 80.41 44.05 C 83.59 41.92 87.01 39.98 90.94 39.78 C 90.92 41.40 90.87 43.01 90.85 44.63 C 87.13 45.09 83.52 46.22 80.33 48.22 C 80.24 55.07 80.68 61.94 80.09 68.78 C 78.76 68.86 77.42 68.90 76.08 68.89 C 75.92 59.26 75.93 49.63 76.07 40.00 Z" />
<path fill="#043d7d" d=" M 102.01 40.03 C 103.59 40.08 105.18 40.15 106.76 40.21 C 109.50 47.43 111.53 54.94 115.00 61.86 C 118.17 54.77 119.92 47.15 123.04 40.03 C 124.63 40.06 126.23 40.10 127.83 40.13 C 124.04 49.67 120.97 59.50 116.77 68.88 C 115.37 68.79 113.98 68.72 112.59 68.66 C 108.78 59.22 105.38 49.62 102.01 40.03 Z" />
<path fill="#043d7d" d=" M 142.41 40.18 C 143.87 40.12 145.32 40.07 146.78 40.01 C 146.86 49.62 146.96 59.24 146.74 68.85 C 145.30 68.81 143.87 68.78 142.43 68.73 C 142.43 59.22 142.44 49.70 142.41 40.18 Z" />
<path fill="#ffffff" d=" M 47.17 43.54 C 50.07 43.46 53.17 45.12 54.02 48.03 C 55.34 52.20 55.60 56.88 54.06 61.04 C 52.58 65.33 46.38 66.28 42.94 63.98 C 37.77 58.96 38.17 50.02 42.75 44.74 C 43.89 43.63 45.68 43.68 47.17 43.54 Z" />
<path fill="#043d7d" d=" M 232.54 59.40 C 231.05 54.25 234.42 49.12 238.69 46.49 C 241.34 49.14 243.78 52.20 247.25 53.83 C 250.07 55.09 253.11 55.73 256.08 56.50 C 256.00 62.57 251.25 68.58 244.96 68.86 C 239.19 69.42 233.75 64.95 232.54 59.40 Z" />
</svg>
